packages/foundations/assets/icons/functional/images/accessibility/stepless_entry.svg

<svg xmlns="http://www.w3.org/2000/svg" width="32" height="32" fill="none"><path fill="#1A1C1F" fill-rule="evenodd" d="M12.925 4.416a1.99 1.99 0 0 0-1.313 1.877c.001 1.399 1.396 2.366 2.697 1.869.395-.151.893-.605 1.074-.979a2.13 2.13 0 0 0 .031-1.728c-.145-.328-.588-.771-.946-.949-.406-.201-1.116-.243-1.543-.09m-.704 5.348c-.397.159-.644.52-.646.944a.91.91 0 0 0 .333.741c.236.207.571.284 1.238.284.445 0 .516.014.635.12.111.1.25.527.832 2.547.859 2.983.782 2.743.949 2.942.296.352.365.362 2.441.363l1.87.002 1.108 2.771c1.019 2.549 1.124 2.786 1.315 2.958.115.104.275.203.356.22.081.018.175.041.208.051.125.037.531-.092.705-.224.214-.163.379-.499.38-.776.002-.248-2.456-6.427-2.645-6.652-.265-.315-.312-.322-2.353-.322h-1.863l-.291-1-.292-1 1.123-.026c.909-.022 1.153-.044 1.283-.115.708-.391.738-1.368.053-1.744-.133-.073-.398-.092-1.593-.115l-1.432-.026-.109-.294c-.318-.859-1.043-1.489-1.9-1.652-.356-.067-1.535-.066-1.705.003m-2.434 3.881c-.511.244-1.139 1.23-1.483 2.33-.203.644-.27 1.221-.235 2.019a5.65 5.65 0 0 0 .936 2.945 5.997 5.997 0 0 0 7.669 2.155c.88-.428 1.791-1.194 2.213-1.861.482-.76-.215-1.726-1.083-1.499-.184.048-.321.154-.684.529-.695.719-1.103.981-1.922 1.239-.343.107-.506.124-1.171.123-.733-.002-.8-.011-1.277-.176a5 5 0 0 1-.817-.364c-.726-.441-1.325-1.182-1.648-2.039-.169-.447-.173-.483-.176-1.313-.002-.797.007-.881.146-1.284.081-.237.254-.597.383-.8.516-.808.521-.818.525-1.082.011-.713-.749-1.222-1.376-.922M3.598 25.807c-.441.2-.683.673-.567 1.107.083.311.234.509.507.666l.222.127h7.573c7.468 0 7.577-.002 7.784-.107.115-.059.283-.199.373-.312.146-.183.163-.243.163-.564 0-.447-.163-.732-.52-.904l-.233-.113-7.544.001c-7.202.001-7.552.005-7.758.099m18.651.014c-.354.175-.516.459-.516.903 0 .321.018.381.164.564.09.113.258.253.373.312.202.103.316.107 3.09.107h2.88l.222-.127c.273-.157.424-.355.507-.666.116-.434-.126-.907-.567-1.107-.2-.091-.416-.098-3.069-.099-2.811-.001-2.856 0-3.084.113"/></svg>

<svg width="32" height="32" viewBox="0 0 32 32" fill="none" xmlns="http://www.w3.org/2000/svg"><path d="M12.925 4.416 C 12.140 4.695,11.611 5.452,11.612 6.293 C 11.613 7.692,13.008 8.659,14.309 8.162 C 14.704 8.011,15.202 7.557,15.383 7.183 C 15.637 6.659,15.649 5.986,15.414 5.455 C 15.269 5.127,14.826 4.684,14.468 4.506 C 14.062 4.305,13.352 4.263,12.925 4.416 M12.221 9.764 C 11.824 9.923,11.577 10.284,11.575 10.708 C 11.573 11.014,11.678 11.247,11.908 11.449 C 12.144 11.656,12.479 11.733,13.146 11.733 C 13.591 11.733,13.662 11.747,13.781 11.853 C 13.892 11.953,14.031 12.380,14.613 14.400 C 15.472 17.383,15.395 17.143,15.562 17.342 C 15.858 17.694,15.927 17.704,18.003 17.705 L 19.873 17.707 20.981 20.478 C 22.000 23.027,22.105 23.264,22.296 23.436 C 22.411 23.540,22.571 23.639,22.652 23.656 C 22.733 23.674,22.827 23.697,22.860 23.707 C 22.985 23.744,23.391 23.615,23.565 23.483 C 23.779 23.320,23.944 22.984,23.945 22.707 C 23.947 22.459,21.489 16.280,21.300 16.055 C 21.035 15.740,20.988 15.733,18.947 15.733 L 17.084 15.733 16.793 14.733 L 16.501 13.733 17.624 13.707 C 18.533 13.685,18.777 13.663,18.907 13.592 C 19.615 13.201,19.645 12.224,18.960 11.848 C 18.827 11.775,18.562 11.756,17.367 11.733 L 15.935 11.707 15.826 11.413 C 15.508 10.554,14.783 9.924,13.926 9.761 C 13.570 9.694,12.391 9.695,12.221 9.764 M9.787 13.645 C 9.276 13.889,8.648 14.875,8.304 15.975 C 8.101 16.619,8.034 17.196,8.069 17.994 C 8.117 19.093,8.412 20.021,9.005 20.939 C 10.662 23.501,13.943 24.423,16.674 23.094 C 17.554 22.666,18.465 21.900,18.887 21.233 C 19.369 20.473,18.672 19.507,17.804 19.734 C 17.620 19.782,17.483 19.888,17.120 20.263 C 16.425 20.982,16.017 21.244,15.198 21.502 C 14.855 21.609,14.692 21.626,14.027 21.625 C 13.294 21.623,13.227 21.614,12.750 21.449 C 12.472 21.353,12.105 21.190,11.933 21.085 C 11.207 20.644,10.608 19.903,10.285 19.046 C 10.116 18.599,10.112 18.563,10.109 17.733 C 10.107 16.936,10.116 16.852,10.255 16.449 C 10.336 16.212,10.509 15.852,10.638 15.649 C 11.154 14.841,11.159 14.831,11.163 14.567 C 11.174 13.854,10.414 13.345,9.787 13.645 M3.598 25.807 C 3.157 26.007,2.915 26.480,3.031 26.914 C 3.114 27.225,3.265 27.423,3.538 27.580 L 3.760 27.707 11.333 27.707 C 18.801 27.707,18.910 27.705,19.117 27.600 C 19.232 27.541,19.400 27.401,19.490 27.288 C 19.636 27.105,19.653 27.045,19.653 26.724 C 19.653 26.277,19.490 25.992,19.133 25.820 L 18.900 25.707 11.356 25.708 C 4.154 25.709,3.804 25.713,3.598 25.807 M22.249 25.821 C 21.895 25.996,21.733 26.280,21.733 26.724 C 21.733 27.045,21.751 27.105,21.897 27.288 C 21.987 27.401,22.155 27.541,22.270 27.600 C 22.472 27.703,22.586 27.707,25.360 27.707 L 28.240 27.707 28.462 27.580 C 28.735 27.423,28.886 27.225,28.969 26.914 C 29.085 26.480,28.843 26.007,28.402 25.807 C 28.202 25.716,27.986 25.709,25.333 25.708 C 22.522 25.707,22.477 25.708,22.249 25.821 " fill="#1A1C1F" stroke="none" fill-rule="evenodd"></path></svg>
